X:255
L:1/8
M:2/2
K:A
 a2- | abaf e2 c2 | efec A2 a2- | abaf e2 c2 | !slide![ee]3 e [ee]2 a- | abaf e2 c2 | 
 efec A2 !slide!c2- | cBcB AFEF | [AA]3 A [AA]2 :: ([AA][FA] | [EA]2) FF AFAA | (B c2) B cBAF | 
 BABc BAFG | A2 cB cBAF | EFAc BAAB | (B c2) B cBAc | efec BA F2 | !slide![AA]3 A [AA]2 :|

